X:3
T:Killiecrankie
T:Harmony 2
C:arr Adam Blaine
R:March
M:4/4
L:1/8
K:D
[| {g}f>g |{ag}a3 A {GAG}A2 {g}B{d}c | {Gdc}d2 {e}G2 {gGd}G3 B  | {g}A2 d2 A2 A2 |A2 A2 A2 {g}AB | 
c2 c2 c2 dA | G2 B2 d2 B2 | A2 B2 c3 B | G2 A2 A2 de ||
A2 d2 A2 A2 | G2 B2 G2 G2 | {g}A2 d2 A2 A2 |A2 A2 A2 {g}AB |  
A2 A2 d2 B2 | G2 G2 A2 B2 | A2 B2 c3 B | G2 A2 A4 |]


